src/assets/icon/share-ball.svg

<svg width="25" height="25" viewBox="0 0 25 25" fill="none" xmlns="http://www.w3.org/2000/svg">
<g clip-path="url(#clip0_883_3512)">
<path d="M14.3299 5.98L12.6499 8.88L14.3299 11.79H17.6899L19.3599 8.88L17.6899 5.98H14.3299Z" fill="white"/>
<path d="M14.3302 5.98H17.6802L19.3602 3.06999L17.9402 0.599995C17.3202 0.459995 16.6702 0.369995 16.0102 0.369995C15.3502 0.369995 14.7002 0.449995 14.0802 0.599995L12.6602 3.06L14.3402 5.97L14.3302 5.98Z" stroke="white" stroke-width="0.5" stroke-miterlimit="10"/>
<path d="M17.6899 5.98L19.3699 8.89H22.7199L24.1499 6.42C23.7699 5.16 23.0899 4.02 22.2099 3.08H19.3699L17.6899 5.99V5.98Z" stroke="white" stroke-width="0.5" stroke-miterlimit="10"/>
<path d="M22.7199 8.88H19.3699L17.6899 11.79L19.3699 14.7H22.2099C23.0899 13.76 23.7599 12.63 24.1499 11.36L22.7199 8.89V8.88Z" stroke="white" stroke-width="0.5" stroke-miterlimit="10"/>
<path d="M17.6902 11.79H14.3402L12.6602 14.7L14.0802 17.16C14.7002 17.3 15.3502 17.39 16.0102 17.39C16.6702 17.39 17.3202 17.31 17.9402 17.16L19.3602 14.69L17.6802 11.78L17.6902 11.79Z" stroke="white" stroke-width="0.5" stroke-miterlimit="10"/>
<path d="M14.3301 11.79L12.6501 8.88H9.30012L7.87012 11.35C8.25012 12.61 8.93012 13.75 9.81012 14.69H12.6501L14.3301 11.78V11.79Z" stroke="white" stroke-width="0.5" stroke-miterlimit="10"/>
<path d="M12.6501 8.88L14.3301 5.97L12.6501 3.06H9.81012C8.93012 4 8.25012 5.13 7.87012 6.4L9.30012 8.87H12.6501V8.88Z" stroke="white" stroke-width="0.5" stroke-miterlimit="10"/>
<path d="M7.70439 16.1433L0.21613 23.6315C-0.0728579 23.9205 -0.072858 24.3891 0.21613 24.6781L0.223201 24.6851C0.512189 24.9741 0.980731 24.9741 1.26972 24.6851L8.75798 17.1969C9.04697 16.9079 9.04697 16.4393 8.75798 16.1504L8.75091 16.1433C8.46192 15.8543 7.99338 15.8543 7.70439 16.1433Z" fill="white"/>
<path d="M13.8903 16.64L13.5703 16.96C13.7803 17.03 13.9803 17.11 14.2003 17.16L13.9003 16.64H13.8903Z" fill="white"/>
<path d="M8.86014 23.44C9.25778 23.44 9.58014 23.1176 9.58014 22.72C9.58014 22.3224 9.25778 22 8.86014 22C8.46249 22 8.14014 22.3224 8.14014 22.72C8.14014 23.1176 8.46249 23.44 8.86014 23.44Z" fill="white"/>
<path d="M15.9102 0C11.0002 0 7.03022 3.98 7.03022 8.88C7.03022 9.58 7.12022 10.26 7.27022 10.91L0.750215 17.43C0.460215 17.72 0.460215 18.19 0.750215 18.48C1.04021 18.77 1.51021 18.77 1.80021 18.48L7.79022 12.49C8.81021 14.78 10.7702 16.57 13.1902 17.34L9.93021 20.6C9.64021 20.89 9.64021 21.36 9.93021 21.65C10.2202 21.94 10.6902 21.94 10.9802 21.65L14.9202 17.71C15.2402 17.75 15.5702 17.77 15.9102 17.77C20.8202 17.77 24.7902 13.79 24.7902 8.89C24.7902 3.99 20.8202 0 15.9102 0ZM21.9602 14.69H19.3602L18.0302 17C17.3502 17.18 16.6402 17.28 15.9102 17.28C15.2602 17.28 14.6302 17.2 14.0202 17.06L12.6502 14.7H9.85021C9.14021 13.96 8.56021 13.09 8.15021 12.13L8.23021 12.05C8.14021 11.82 8.05022 11.6 7.98022 11.36V11.16L9.29021 8.89L7.87021 6.43C8.26021 5.16 8.95021 4.01 9.85021 3.08H12.6502L14.0202 0.72C14.6302 0.58 15.2602 0.5 15.9102 0.5C16.6402 0.5 17.3502 0.59 18.0302 0.77L19.3702 3.09H21.9702C22.9202 4.08 23.6402 5.31 24.0102 6.68L22.7302 8.9L24.0102 11.12C23.6402 12.49 22.9302 13.72 21.9702 14.71L21.9602 14.69Z" fill="white"/>
</g>
<defs>
<clipPath id="clip0_883_3512">
<rect width="24.79" height="24.89" fill="white"/>
</clipPath>
</defs>
</svg>

<?xml version="1.0" encoding="UTF-8"?>
<svg id="Capa_2" data-name="Capa 2" xmlns="http://www.w3.org/2000/svg" viewBox="0 0 24.79 24.89">
  <defs>
    <style>
      .cls-1 {
        fill: none;
        stroke: #fff;
        stroke-miterlimit: 10;
        stroke-width: .5px;
      }

      .cls-2 {
        fill: #fff;
        stroke-width: 0px;
      }
    </style>
  </defs>
  <g id="Capa_1-2" data-name="Capa 1">
    <polygon class="cls-2" points="14.33 5.98 12.65 8.88 14.33 11.79 17.69 11.79 19.36 8.88 17.69 5.98 14.33 5.98"/>
    <path class="cls-1" d="M14.33,5.98h3.35l1.68-2.91-1.42-2.47c-.62-.14-1.27-.23-1.93-.23s-1.31.08-1.93.23l-1.42,2.46,1.68,2.91Z"/>
    <path class="cls-1" d="M17.69,5.98l1.68,2.91h3.35l1.43-2.47c-.38-1.26-1.06-2.4-1.94-3.34h-2.84l-1.68,2.91Z"/>
    <path class="cls-1" d="M22.72,8.88h-3.35l-1.68,2.91,1.68,2.91h2.84c.88-.94,1.55-2.07,1.94-3.34l-1.43-2.47Z"/>
    <path class="cls-1" d="M17.69,11.79h-3.35l-1.68,2.91,1.42,2.46c.62.14,1.27.23,1.93.23s1.31-.08,1.93-.23l1.42-2.47-1.68-2.91Z"/>
    <path class="cls-1" d="M14.33,11.79l-1.68-2.91h-3.35l-1.43,2.47c.38,1.26,1.06,2.4,1.94,3.34h2.84l1.68-2.91Z"/>
    <path class="cls-1" d="M12.65,8.88l1.68-2.91-1.68-2.91h-2.84c-.88.94-1.56,2.07-1.94,3.34l1.43,2.47h3.35Z"/>
    <rect class="cls-2" x="-1.55" y="19.67" width="12.07" height="1.49" rx=".74" ry=".74" transform="translate(-13.12 9.15) rotate(-45)"/>
    <path class="cls-2" d="M13.89,16.64l-.32.32c.21.07.41.15.63.2l-.3-.52Z"/>
    <circle class="cls-2" cx="8.86" cy="22.72" r=".72"/>
    <path class="cls-2" d="M15.91,0C11,0,7.03,3.98,7.03,8.88c0,.7.09,1.38.24,2.03L.75,17.43c-.29.29-.29.76,0,1.05s.76.29,1.05,0l5.99-5.99c1.02,2.29,2.98,4.08,5.4,4.85l-3.26,3.26c-.29.29-.29.76,0,1.05s.76.29,1.05,0l3.94-3.94c.32.04.65.06.99.06,4.91,0,8.88-3.98,8.88-8.88S20.82,0,15.91,0ZM21.96,14.69h-2.6l-1.33,2.31c-.68.18-1.39.28-2.12.28-.65,0-1.28-.08-1.89-.22l-1.37-2.36h-2.8c-.71-.74-1.29-1.61-1.7-2.57l.08-.08c-.09-.23-.18-.45-.25-.69v-.2l1.31-2.27-1.42-2.46c.39-1.27,1.08-2.42,1.98-3.35h2.8l1.37-2.36c.61-.14,1.24-.22,1.89-.22.73,0,1.44.09,2.12.27l1.34,2.32h2.6c.95.99,1.67,2.22,2.04,3.59l-1.28,2.22,1.28,2.22c-.37,1.37-1.08,2.6-2.04,3.59Z"/>
  </g>
</svg>
